X:1
T:James Gibb editions
T:Parce mihi, Domine - Morales
T:#
%%score [ 1 2 3 4 ]
L:1/8
Q:1/4=160
M:2/2
K:C
V:1 treble nm="Soprano" snm="S"
V:2 treble nm="Alto" snm="A"
V:3 treble-8 nm="Tenor" snm="T"
V:4 bass nm="Bass" snm="B"
V:1
"^Cristóbal de Morales\n(1500-53)" c8 | c4"^Parce mihi, Domine" c4- | c4 c4 | c8- | c4 c4 | c8 | %6
w: Par-|ce mi\-|* hi,|Do\-|* mi-|ne,|
 c4 c4 | c8 | c4 c4 | c4 c4 | c8 | F8 | z4 c4 | c4 c4- | c4 c4 | c4 c4 | c4 c4- | c2 c2 c4 | c8 | %19
w: ni- hil|e-|nim sunt|di- es|me-|i.|Quid|est ho\-|* mo|qui- a|mag- ni\-|* fi- cas|e-|
 B8 | z4 B4 | B4 B4 | B8- | B4 B4 | B4 B4 | B4 B4 | B4 (c4- | c4 B4) | c8 | z4 c4 | c4 c4 | c4 c4 | %32
w: um?|Aut|quid ap-|po\-|* nis|er- ga|e- um|cor tu\-||um?|Vi-|si- tas|e- um|
 c4 c4- | c4 c4 | c8 | z4 c4 | c8 | c4 c4 | c4 c4 | c8- | c8 | F8 | z8 | c4 c4 | c4 c4 | c4 c4 | %46
w: di- lu\-|* cu-|lo,|et|su-|bi- to|pro- bas|il\-||lum.||Us- que-|quo non|par- cis|
 c8 | B8 | z8 | B4 B4 | B4 B4 | B4 B4 | B6 B2 | B4 B4 | B8 | B4 (c4- | c4 B4) | c8 | z8 | c8- | %60
w: mi-|hi,||nec di-|mit- tis|me, ut|glu- ti-|am sa-|li-|vam me\-||am?||Pec\-|
 c8 | c8- | c8 | F8 | z8 | c8 | c8 | c4 c4 | c8 | B8 | z4 B4 | B4 B4 | c8- | c8 | B8 | c8 | z8 | %77
w: |ca\-||vi,||quid|fa-|ci- am|ti-|bi,|O|cus- tos|ho\-||mi-|num?||
 c4 c4 | c4 c4 | c4 c4 | c4 c4 | c8 | c4 c4 | c8 | B8 | z4 B4 | B4 B4 | B4 B4- | B4 B4 | B8 | %90
w: Qua- re|po- su-|i- sti|me con-|tra-|ri- um|ti-|bi,|et|fac- tus|sum mi\-|* hi-|met|
 B4 B4 | (c8- | c4 B4) | c8 | z4 c4- | c4 c4 | c8 | c4 c4 | c4 c4 | c8 | B8 | z4 B4 | B4 B4 | %103
w: i- psi|gra\-||vis?|Cur|* non|tol-|lis pec-|ca- tum|me-|um,|et|qua- re|
 B4 B4- | B4 B4 | B8 | B4 B4 | B8 | c8 | (c8 | B8) | c8 | z8 | c4 c4 | c4 c4 | c6 c2 | c4 c4- | %117
w: non au\-|* fers|i-|ni- qui-|ta-|tem|me\-||am?||Ec- ce,|nunc in|pul- ve-|re dor\-|
 c4 c4 | c8 | z4 c4 | c4 c4- | c4 c4 | c4 c4 | c4 c4 | c8 | c8 | d8 | c8 | (c8 | B8- | %130
w: * mi-|am:|et|si ma\-|* ne|me quae-|si- e-|ris|non|sub-|si-|stam.||
 !fermata!B8) |] %131
w: |
V:2
 G8 | A4 A4- | A4 A4 | A8- | A4 A4 | A8 | G4 G4 | G8 | F4 F4 | F4 F4 | C8 | D8 | z4 G4 | G4 A4- | %14
w: Par-|ce mi\-|* hi,|Do\-|* mi-|ne,|ni- hil|e-|nim sunt|di- es|me-|i.|Quid|est ho\-|
 A4 A4 | A4 A4 | A4 A4- | A2 A2 A4 | G8 | G8 | z4 G4 | G4 G4 | G8- | G4 G4 | G4 G4 | G4 G4 | G8 | %27
w: * mo|qui- a|mag- ni\-|* fi- cas|e-|um?|Aut|quid ap-|po\-|* nis|er- ga|e- um|cor|
 G8 | G8 | z4 G4 | G4 G4 | A4 A4 | A4 A4- | A4 A4 | A8 | z4 G4 | G8 | A4 A4 | A4 A4 | (G6 F2 | %40
w: tu-|um?|Vi-|si- tas|e- um|di- lu\-|* cu-|lo,|et|su-|bi- to|pro- bas|il\- *|
 E8) | D8 | z8 | G4 G4 | A4 A4 | A4 A4 | G8 | G8 | z8 | G4 G4 | G4 G4 | G4 G4 | G6 G2 | G8- | %54
w: |lum.||Us- que-|quo non|par- cis|mi-|hi,||nec di-|mit- tis|me, ut|glu- ti-|am|
 G4 G4 | F4 G4 | G8 | G8 | z8 | G8- | G8 | A8- | A8 | A8 | z8 | A8 | A8 | A4 A4 | (E4 F4) | G8 | %70
w: * sa-|li- vam|me-|am?||Pec\-||ca\-||vi,||quid|fa-|ci- am|ti\- *|bi,|
 z4 G4 | G4 G4 | G4 A4 | G8- | G8 | G8 | z8 | G4 G4 | A4 A4 | A4 A4 | A4 A4 | A8 | A4 A4 | G8 | %84
w: O|cus- tos|ho- mi-|num?||||Qua- re|po- su-|i- sti|me con-|tra-|ri- um|ti-|
 G8 | z4 G4 | G4 G4 | G4 G4- | G4 G4 | G8 | G4 G4 | (A4 G2 F2 | G8) | G8 | z4 G4- | G4 G4 | A8 | %97
w: bi,|et|fac- tus|sum mi\-|* hi-|met|i- psi|gra\- * *||vis?|Cur|* non|tol-|
 A4 A4 | G4 G4 | (G4 ^F4) | G8 | z4 G4 | G4 G4 | G4 G4- | G4 G4 | G8 | G8- | G4 G4 | A8 | (G4 A4) | %110
w: lis pec-|ca- tum|me\- *|um,|et|qua- re|non au\-|* fers|i-|ni\-|* qui-|ta-|tem *|
 G8 | G8 | z8 | G4 G4 | A4 A4 | A6 A2 | G4 A4- | A4 A4 | G8 | z4 G4 | G4 G4- | G4 G4 | A4 A4 | %123
w: me-|am?||Ec- ce,|nunc in|pul- ve-|re dor\-|* mi-|am:|et|si ma\-|* ne|me quae-|
 A4 A4 | G8 | A4 (c4- | c4 B4) | (A4 G4 | A8- | A4 ^G2 ^F2) | !fermata!^G8 |] %131
w: si- e-|ris|non sub\-||si\- *|||stam.|
V:3
 c8 | e4 e4- | e4 f4 | f8- | f4 f4 | f8 | e4 e4 | e8 | A4 A4 | A4 A4 | A8 | A8 | z4 e4 | e4 f4- | %14
w: Par-|ce mi\-|* hi,|Do\-|* mi-|ne,|ni- hil|e-|nim sunt|di- es|me-|i.|Quid|est ho\-|
 f4 f4 | e4 e4 | e4 e4- | !tenuto!e2 e2 e4 | e8 | d8 | z4 d4 | d4 d4 | e8- | e4 e4 | d4 e4 | %25
w: * mo|qui- a|mag- ni\-|* fi- cas|e-|um?|Aut|quid ap-|po\-|* nis|er- ga|
 d4 e4- | e4 (d2 c2) | d8 | c8 | z4 e4 | e4 e4 | e4 e4 | e4 f4- | f4 f4 | e8 | z4 e4 | e8 | f4 f4 | %38
w: e- um|* cor *|tu-|um?|Vi-|si- tas|e- um|di- lu\-|* cu-|lo,|et|su-|bi- to|
 f4 f4 | (e6 d2 | c6 B2) | A8 | z8 | e4 e4 | f4 f4 | e4 e4 | e8 | d8 | z8 | d4 d4 | d4 d4 | e4 e4 | %52
w: pro- bas|il\- *||lum.||Us- que-|quo non|par- cis|mi-|hi,||nec di-|mit- tis|me, ut|
 e6 e2 | e4 d4 | (G2 A2 B2 c2 | d4) e4 | d8 | c8 | z8 | e8- | e8 | (f8 | c8) | d8 | z8 | e8 | f8 | %67
w: glu- ti-|am sa-|li\- * * *|* vam|me-|am?||Pec\-||ca\-||vi,||quid|fa-|
 f4 f4 | c8 | d8 | z4 d4 | d4 d4 | (e4 f4- | f4 e4) | d8 | c8 | z8 | e4 e4 | e4 e4 | e4 f4 | %80
w: ci- am|ti-|bi,|O|cus- tos|ho\- *||mi-|num?||Qua- re|po- su-|i- sti|
 f4 f4 | f8 | e4 e4 | e8 | d8 | z4 d4 | d4 d4 | d4 e4- | e4 e4 | d8 | d4 d4 | (e8 | d8) | c8 | %94
w: me con-|tra-|ri- um|ti-|bi,|et|fac- tus|sum mi\-|* hi-|met|i- psi|gra\-||vis?|
 z4 e4- | e4 e4 | e8 | e4 f4 | e6 d2 | c8 | d8 | z4 e4 | e4 e4 | e4 e4- | e4 e4 | d8 | d4 e4 | %107
w: Cur|* non|tol-|lis pec-|ca- tum|me-|um,|et|qua- re|non au\-|* fers|i-|ni- qui-|
 (e4 d4) | (f4 e2 d2 | e4 f4) | d8 | c8 | z8 | e4 e4 | e4 e4 | f6 f2 | e4 f4- | f4 (e2 d2) | e8 | %119
w: ta\- *|tem * *||me-|am?||Ec- ce,|nunc in|pul- ve-|re dor\-|* mi\- *|am:|
 z4 e4 | e4 e4- | e4 e4 | f4 f4 | f4 f4 | e8 | e8 | (g8 | e8) | (f4 e2 d2) | e8- | !fermata!e8 |] %131
w: et|si ma\-|* ne|me quae-|si- e-|ris|non|sub\-||si\- * *|stam.||
V:4
 C8 | A,4 A,4- | A,4 F,4 | F,8- | F,4 F,4 | F,8 | C,4 C,4 | C,8 | F,4 F,4 | F,4 F,4 | F,8 | D,8 | %12
w: Par-|ce mi\-|* hi,|Do\-|* mi-|ne,|ni- hil|e-|nim sunt|di- es|me-|i.|
 z4 C,4 | C,4 F,4- | F,4 F,4 | A,4 A,4 | A,4 A,4- | A,2 A,2 A,4 | C8 | G,8 | z4 G,4 | G,4 G,4 | %22
w: Quid|est ho\-|* mo|qui- a|mag- ni\-|* fi- cas|e-|um?|Aut|quid ap-|
 E,8- | E,4 E,4 | G,4 E,4 | G,4 E,4 | G,8 | G,8 | C,8 | z4 C4 | C4 C4 | A,4 A,4 | A,4 F,4- | %33
w: po\-|* nis|er- ga|e- um|cor|tu-|um?|Vi-|si- tas|e- um|di- lu\-|
 F,4 F,4 | A,8 | z4 C4 | C8 | F,4 F,4 | F,4 F,4 | C,8- | C,8 | D,8 | z8 | C,4 C,4 | F,4 F,4 | %45
w: * cu-|lo,|et|su-|bi- to|pro- bas|il\-||lum.||Us- que-|quo non|
 A,4 A,4 | C8 | G,8 | z8 | G,4 G,4 | G,4 G,4 | E,4 E,4 | E,6 E,2 | E,4 G,4 | (G,2 F,2 E,4 | %55
w: par- cis|mi-|hi,||nec di-|mit- tis|me, ut|glu- ti-|am sa-|li\- * *|
 D,4) C,4 | G,8 | C,8 | z8 | C8- | C8 | F,8- | F,8 | D,8 | z8 | A,8 | F,8 | F,4 F,4 | A,8 | G,8 | %70
w: * vam|me-|am?||Pec\-||ca\-||vi,||quid|fa-|ci- am|ti-|bi,|
 z4 G,4 | G,4 G,4 | (C4 F,4 | G,8) | G,8 | C,8 | z8 | C4 C4 | A,4 A,4 | A,4 F,4 | F,4 F,4 | F,8 | %82
w: O|cus- tos|ho\- *||mi-|num?||Qua- re|po- su-|i- sti|me con-|tra-|
 A,4 A,4 | C8 | G,8 | z4 G,4 | G,4 G,4 | G,4 E,4- | E,4 E,4 | G,8 | G,4 B,4 | (A,2 B,2 C4 | G,8) | %93
w: ri- um|ti-|bi,|et|fac- tus|sum mi\-|* hi-|met|i- psi|gra\- * *||
 C,8 | z4 C4- | C4 C4 | A,8 | A,4 F,4 | C6 B,2 | A,8 | G,8 | z4 E,4 | E,4 E,4 | E,4 E,4- | %104
w: vis?|Cur|* non|tol-|lis pec-|ca- tum|me-|um,|et|qua- re|non au\-|
 E,4 E,4 | G,8 | G,4 E,4 | (E,4 G,4) | (F,2 G,2 A,2 B,2 | C4 F,4) | G,8 | C,8 | z8 | C4 C4 | %114
w: * fers|i-|ni- qui-|ta\- *|tem * * *||me-|am?||Ec- ce,|
 A,4 A,4 | F,6 F,2 | C,4 F,4- | F,4 F,4 | C,8 | z4 C,4 | C,4 C,4- | C,4 C,4 | F,4 F,4 | F,4 F,4 | %124
w: nunc in|pul- ve-|re dor\-|* mi-|am:|et|si ma\-|* ne|me quae-|si- e-|
 C8 | A,8 | G,8 | (C,8 | F,8) | E,8- | !fermata!E,8 |] %131
w: ris|non|sub-|si\-||stam.||

